src/gui/emoticons/monkey.svg

<svg xmlns="http://www.w3.org/2000/svg" xmlns:xlink="http://www.w3.org/1999/xlink" width="16pt" height="16pt" version="1.1" viewBox="0 0 16 16"><defs><linearGradient id="linear0" x1="64.071" x2="64.071" y1="113.87" y2="13.865" gradientTransform="matrix(0.125,0,0,0.125,0,0)" gradientUnits="userSpaceOnUse"><stop offset="0" style="stop-color:#825c40;stop-opacity:1"/><stop offset=".167" style="stop-color:#855f41;stop-opacity:1"/><stop offset=".31" style="stop-color:#906746;stop-opacity:1"/><stop offset=".445" style="stop-color:#a2764d;stop-opacity:1"/><stop offset=".488" style="stop-color:#a97c50;stop-opacity:1"/></linearGradient><linearGradient id="linear1" x1="64.071" x2="64.071" y1="36.395" y2="109.5" gradientTransform="matrix(0.125,0,0,0.125,0,0)" gradientUnits="userSpaceOnUse"><stop offset=".259" style="stop-color:#e6b175;stop-opacity:1"/><stop offset=".455" style="stop-color:#e2ac70;stop-opacity:1"/><stop offset=".686" style="stop-color:#d59e62;stop-opacity:1"/><stop offset=".935" style="stop-color:#c0884a;stop-opacity:1"/><stop offset=".969" style="stop-color:#bd8446;stop-opacity:1"/></linearGradient><clipPath id="clip1"><path d="M 4 9 L 12 9 L 12 13 L 4 13 Z M 4 9"/></clipPath><clipPath id="clip2"><path d="M 8.820312 12.847656 C 10.292969 12.554688 11.265625 11.480469 11.492188 10.273438 C 11.535156 10.050781 11.339844 9.859375 11.121094 9.902344 C 10.226562 10.070312 9.152344 10.164062 8 10.164062 C 6.84375 10.164062 5.773438 10.070312 4.878906 9.902344 C 4.65625 9.859375 4.460938 10.054688 4.507812 10.277344 C 4.804688 11.734375 6.234375 12.925781 7.996094 12.925781 C 8.285156 12.925781 8.5625 12.898438 8.820312 12.847656"/></clipPath><clipPath id="clip3"><path d="M 4 9 L 12 9 L 12 11 L 4 11 Z M 4 9"/></clipPath><clipPath id="clip4"><path d="M 8.820312 12.847656 C 10.292969 12.554688 11.265625 11.480469 11.492188 10.273438 C 11.535156 10.050781 11.339844 9.859375 11.121094 9.902344 C 10.226562 10.070312 9.152344 10.164062 8 10.164062 C 6.84375 10.164062 5.773438 10.070312 4.878906 9.902344 C 4.65625 9.859375 4.460938 10.054688 4.507812 10.277344 C 4.804688 11.734375 6.234375 12.925781 7.996094 12.925781 C 8.285156 12.925781 8.5625 12.898438 8.820312 12.847656"/></clipPath><clipPath id="clip5"><path d="M 5 11 L 11 11 L 11 13 L 5 13 Z M 5 11"/></clipPath><clipPath id="clip6"><path d="M 8.820312 12.847656 C 10.292969 12.554688 11.265625 11.480469 11.492188 10.273438 C 11.535156 10.050781 11.339844 9.859375 11.121094 9.902344 C 10.226562 10.070312 9.152344 10.164062 8 10.164062 C 6.84375 10.164062 5.773438 10.070312 4.878906 9.902344 C 4.65625 9.859375 4.460938 10.054688 4.507812 10.277344 C 4.804688 11.734375 6.234375 12.925781 7.996094 12.925781 C 8.285156 12.925781 8.5625 12.898438 8.820312 12.847656"/></clipPath></defs><g id="surface1"><path style="stroke:none;fill-rule:nonzero;fill:#e6b175;fill-opacity:1" d="M 6.289062 8.25 C 6.289062 6.515625 5.035156 5.109375 3.488281 5.109375 C 1.941406 5.109375 0.6875 6.515625 0.6875 8.25 C 0.6875 9.984375 1.941406 11.390625 3.488281 11.390625 C 5.035156 11.390625 6.289062 9.984375 6.289062 8.25 Z M 6.289062 8.25"/><path style="stroke:none;fill-rule:nonzero;fill:#8b5e3c;fill-opacity:1" d="M 3.488281 5.296875 C 4.929688 5.296875 6.101562 6.621094 6.101562 8.25 C 6.101562 9.878906 4.929688 11.203125 3.488281 11.203125 C 2.046875 11.203125 0.875 9.878906 0.875 8.25 C 0.875 6.621094 2.046875 5.296875 3.488281 5.296875 M 3.488281 4.921875 C 1.839844 4.921875 0.5 6.410156 0.5 8.25 C 0.5 10.089844 1.839844 11.578125 3.488281 11.578125 C 5.140625 11.578125 6.476562 10.089844 6.476562 8.25 C 6.476562 6.410156 5.140625 4.921875 3.488281 4.921875 Z M 3.488281 4.921875"/><path style="stroke:none;fill-rule:nonzero;fill:#e6b175;fill-opacity:1" d="M 12.511719 11.390625 C 10.964844 11.390625 9.710938 9.984375 9.710938 8.25 C 9.710938 6.515625 10.964844 5.109375 12.511719 5.109375 C 14.054688 5.109375 15.3125 6.515625 15.3125 8.25 C 15.3125 9.984375 14.054688 11.390625 12.511719 11.390625 Z M 12.511719 11.390625"/><path style="stroke:none;fill-rule:nonzero;fill:#8b5e3c;fill-opacity:1" d="M 12.511719 5.296875 C 13.953125 5.296875 15.125 6.621094 15.125 8.25 C 15.125 9.878906 13.953125 11.203125 12.511719 11.203125 C 11.070312 11.203125 9.898438 9.878906 9.898438 8.25 C 9.898438 6.621094 11.070312 5.296875 12.511719 5.296875 M 12.511719 4.921875 C 10.859375 4.921875 9.523438 6.410156 9.523438 8.25 C 9.523438 10.089844 10.859375 11.578125 12.511719 11.578125 C 14.160156 11.578125 15.5 10.089844 15.5 8.25 C 15.5 6.410156 14.160156 4.921875 12.511719 4.921875 Z M 12.511719 4.921875"/><path style="stroke:none;fill-rule:nonzero;fill:url(#linear0)" d="M 8.007812 14.234375 C 6.214844 14.234375 4.675781 13.550781 3.554688 12.261719 C 2.515625 11.066406 1.945312 9.472656 1.945312 7.765625 C 1.945312 4.765625 3.820312 1.734375 8.007812 1.734375 C 12.195312 1.734375 14.070312 4.765625 14.070312 7.765625 C 14.070312 9.472656 13.5 11.066406 12.464844 12.261719 C 11.34375 13.550781 9.800781 14.234375 8.007812 14.234375 Z M 8.007812 14.234375"/><path style="stroke:none;fill-rule:nonzero;fill:#8b5e3c;fill-opacity:1" d="M 8.007812 1.921875 C 9.800781 1.921875 11.304688 2.511719 12.359375 3.625 C 13.34375 4.667969 13.882812 6.136719 13.882812 7.765625 C 13.882812 9.425781 13.328125 10.976562 12.324219 12.136719 C 11.238281 13.386719 9.746094 14.046875 8.007812 14.046875 C 6.269531 14.046875 4.78125 13.386719 3.695312 12.136719 C 2.6875 10.976562 2.132812 9.425781 2.132812 7.765625 C 2.132812 6.136719 2.675781 4.667969 3.660156 3.625 C 4.710938 2.511719 6.214844 1.921875 8.007812 1.921875 M 8.007812 1.546875 C 4.015625 1.546875 1.757812 4.332031 1.757812 7.765625 C 1.757812 11.203125 4.082031 14.421875 8.007812 14.421875 C 11.933594 14.421875 14.257812 11.203125 14.257812 7.765625 C 14.257812 4.332031 12.003906 1.546875 8.007812 1.546875 Z M 8.007812 1.546875"/><path style="stroke:none;fill-rule:nonzero;fill:url(#linear1)" d="M 13.148438 7.027344 C 13.148438 5.660156 11.996094 4.550781 10.574219 4.550781 C 9.304688 4.550781 8.253906 5.429688 8.039062 6.589844 C 8.027344 6.589844 8.011719 6.585938 8 6.585938 L 7.980469 6.585938 C 7.761719 5.429688 6.710938 4.550781 5.445312 4.550781 C 4.023438 4.550781 2.867188 5.660156 2.867188 7.027344 C 2.867188 7.761719 3.203125 8.417969 3.734375 8.871094 C 3.589844 9.195312 3.511719 9.542969 3.511719 9.902344 C 3.511719 11.734375 5.519531 13.6875 8 13.6875 C 10.480469 13.6875 12.488281 11.734375 12.488281 9.902344 C 12.488281 9.546875 12.414062 9.203125 12.273438 8.882812 C 12.808594 8.429688 13.148438 7.765625 13.148438 7.027344 Z M 13.148438 7.027344"/><path style="stroke:none;fill-rule:nonzero;fill:#404040;fill-opacity:1" d="M 6.160156 7.375 C 6.160156 6.761719 5.71875 6.261719 5.175781 6.261719 C 4.632812 6.261719 4.191406 6.761719 4.191406 7.375 C 4.191406 7.992188 4.632812 8.488281 5.175781 8.488281 C 5.71875 8.488281 6.160156 7.992188 6.160156 7.375 Z M 6.160156 7.375"/><path style="stroke:none;fill-rule:nonzero;fill:#404040;fill-opacity:1" d="M 11.808594 7.375 C 11.808594 6.761719 11.367188 6.261719 10.824219 6.261719 C 10.28125 6.261719 9.839844 6.761719 9.839844 7.375 C 9.839844 7.992188 10.28125 8.488281 10.824219 8.488281 C 11.367188 8.488281 11.808594 7.992188 11.808594 7.375 Z M 11.808594 7.375"/><g clip-path="url(#clip1)" clip-rule="nonzero"><g clip-path="url(#clip2)" clip-rule="nonzero"><path style="fill-rule:nonzero;fill:#404040;fill-opacity:1;stroke-width:1;stroke-linecap:butt;stroke-linejoin:miter;stroke:#404040;stroke-opacity:1;stroke-miterlimit:10" d="M 64 81.3125 C 54.75 81.3125 46.1875 80.5625 39.03125 79.21875 C 37.25 78.875 35.6875 80.4375 36.0625 82.21875 C 38.4375 93.875 49.875 103.40625 63.96875 103.40625 C 79.40625 103.40625 89.78125 93.53125 91.9375 82.1875 C 92.28125 80.40625 90.71875 78.875 88.96875 79.21875 C 81.8125 80.53125 73.21875 81.3125 64 81.3125 Z M 64 81.3125" transform="matrix(0.125,0,0,0.125,0,0)"/></g></g><g clip-path="url(#clip3)" clip-rule="nonzero"><g clip-path="url(#clip4)" clip-rule="nonzero"><path style="stroke:none;fill-rule:nonzero;fill:#fff;fill-opacity:1" d="M 11.875 9.871094 L 11.875 8.75 L 4.125 8.75 L 4.125 9.871094 C 5.25 10.578125 6.613281 10.972656 8 10.972656 C 9.386719 10.972656 10.75 10.578125 11.875 9.871094 Z M 11.875 9.871094"/></g></g><g clip-path="url(#clip5)" clip-rule="nonzero"><g clip-path="url(#clip6)" clip-rule="nonzero"><path style="stroke:none;fill-rule:nonzero;fill:#ff4f4f;fill-opacity:1" d="M 8 11.917969 C 7.136719 11.917969 6.382812 12.390625 5.980469 13.089844 C 6.5 13.375 7.214844 13.550781 8 13.550781 C 8.785156 13.550781 9.5 13.375 10.019531 13.089844 C 9.617188 12.390625 8.863281 11.917969 8 11.917969 Z M 8 11.917969"/></g></g><path style="stroke:none;fill-rule:nonzero;fill:#404040;fill-opacity:1" d="M 7.648438 8.765625 C 7.648438 8.496094 7.511719 8.277344 7.34375 8.277344 C 7.175781 8.277344 7.039062 8.496094 7.039062 8.765625 C 7.039062 9.035156 7.175781 9.253906 7.34375 9.253906 C 7.511719 9.253906 7.648438 9.035156 7.648438 8.765625 Z M 7.648438 8.765625"/><path style="stroke:none;fill-rule:nonzero;fill:#404040;fill-opacity:1" d="M 8.960938 8.765625 C 8.960938 8.496094 8.824219 8.277344 8.65625 8.277344 C 8.488281 8.277344 8.351562 8.496094 8.351562 8.765625 C 8.351562 9.035156 8.488281 9.253906 8.65625 9.253906 C 8.824219 9.253906 8.960938 9.035156 8.960938 8.765625 Z M 8.960938 8.765625"/></g></svg>

<svg xmlns="http://www.w3.org/2000/svg" width="16pt" height="16pt" viewBox="0 0 16 16"><defs><clipPath id="c"><path d="M4 9h8v4H4Zm0 0"/></clipPath><clipPath id="d"><path d="M8.82 12.848c1.473-.293 2.446-1.368 2.672-2.575a.316.316 0 0 0-.37-.37c-.895.167-1.97.261-3.122.261-1.156 0-2.227-.094-3.121-.262a.316.316 0 0 0-.371.375c.297 1.457 1.726 2.649 3.488 2.649q.436-.002.824-.078"/></clipPath><clipPath id="e"><path d="M4 9h8v2H4Zm0 0"/></clipPath><clipPath id="f"><path d="M8.82 12.848c1.473-.293 2.446-1.368 2.672-2.575a.316.316 0 0 0-.37-.37c-.895.167-1.97.261-3.122.261-1.156 0-2.227-.094-3.121-.262a.316.316 0 0 0-.371.375c.297 1.457 1.726 2.649 3.488 2.649q.436-.002.824-.078"/></clipPath><clipPath id="g"><path d="M5 11h6v2H5Zm0 0"/></clipPath><clipPath id="h"><path d="M8.82 12.848c1.473-.293 2.446-1.368 2.672-2.575a.316.316 0 0 0-.37-.37c-.895.167-1.97.261-3.122.261-1.156 0-2.227-.094-3.121-.262a.316.316 0 0 0-.371.375c.297 1.457 1.726 2.649 3.488 2.649q.436-.002.824-.078"/></clipPath><linearGradient id="a" x1="64.071" x2="64.071" y1="113.87" y2="13.865" gradientTransform="scale(.125)" gradientUnits="userSpaceOnUse"><stop offset="0" style="stop-color:#825c40;stop-opacity:1"/><stop offset=".167" style="stop-color:#855f41;stop-opacity:1"/><stop offset=".31" style="stop-color:#906746;stop-opacity:1"/><stop offset=".445" style="stop-color:#a2764d;stop-opacity:1"/><stop offset=".488" style="stop-color:#a97c50;stop-opacity:1"/></linearGradient><linearGradient id="b" x1="64.071" x2="64.071" y1="36.395" y2="109.5" gradientTransform="scale(.125)" gradientUnits="userSpaceOnUse"><stop offset=".259" style="stop-color:#e6b175;stop-opacity:1"/><stop offset=".455" style="stop-color:#e2ac70;stop-opacity:1"/><stop offset=".686" style="stop-color:#d59e62;stop-opacity:1"/><stop offset=".935" style="stop-color:#c0884a;stop-opacity:1"/><stop offset=".969" style="stop-color:#bd8446;stop-opacity:1"/></linearGradient></defs><path d="M6.29 8.25c0-1.734-1.255-3.14-2.802-3.14s-2.8 1.406-2.8 3.14 1.253 3.14 2.8 3.14S6.29 9.985 6.29 8.25m0 0" style="stroke:none;fill-rule:nonzero;fill:#e6b175;fill-opacity:1"/><path d="M3.488 5.297c1.442 0 2.614 1.324 2.614 2.953s-1.172 2.953-2.614 2.953S.875 9.88.875 8.25s1.172-2.953 2.613-2.953m0-.375C1.84 4.922.5 6.41.5 8.25s1.34 3.328 2.988 3.328c1.653 0 2.989-1.488 2.989-3.328S5.14 4.922 3.488 4.922m0 0" style="stroke:none;fill-rule:nonzero;fill:#8b5e3c;fill-opacity:1"/><path d="M12.512 11.39c-1.547 0-2.801-1.406-2.801-3.14s1.254-3.14 2.8-3.14c1.544 0 2.802 1.406 2.802 3.14s-1.258 3.14-2.801 3.14m0 0" style="stroke:none;fill-rule:nonzero;fill:#e6b175;fill-opacity:1"/><path d="M12.512 5.297c1.441 0 2.613 1.324 2.613 2.953s-1.172 2.953-2.613 2.953S9.898 9.88 9.898 8.25s1.172-2.953 2.614-2.953m0-.375c-1.653 0-2.989 1.488-2.989 3.328s1.336 3.328 2.989 3.328c1.648 0 2.988-1.488 2.988-3.328s-1.34-3.328-2.988-3.328m0 0" style="stroke:none;fill-rule:nonzero;fill:#8b5e3c;fill-opacity:1"/><path d="M8.008 14.234c-1.793 0-3.332-.683-4.453-1.972-1.04-1.196-1.61-2.79-1.61-4.496 0-3 1.875-6.032 6.063-6.032s6.062 3.032 6.062 6.032c0 1.707-.57 3.3-1.605 4.496-1.121 1.289-2.664 1.972-4.457 1.972m0 0" style="stroke:none;fill-rule:nonzero;fill:url(#a)"/><path d="M8.008 1.922c1.793 0 3.297.59 4.351 1.703.985 1.043 1.524 2.512 1.524 4.14 0 1.66-.555 3.212-1.559 4.372-1.086 1.25-2.578 1.91-4.316 1.91s-3.227-.66-4.313-1.91c-1.007-1.16-1.562-2.711-1.562-4.371 0-1.63.543-3.098 1.527-4.141 1.05-1.113 2.555-1.703 4.348-1.703m0-.375c-3.992 0-6.25 2.785-6.25 6.219 0 3.437 2.324 6.656 6.25 6.656s6.25-3.219 6.25-6.656c0-3.434-2.254-6.22-6.25-6.22m0 0" style="stroke:none;fill-rule:nonzero;fill:#8b5e3c;fill-opacity:1"/><path d="M13.148 7.027c0-1.367-1.152-2.476-2.574-2.476-1.27 0-2.32.879-2.535 2.039-.012 0-.027-.004-.039-.004h-.02C7.762 5.43 6.71 4.55 5.445 4.55c-1.422 0-2.578 1.11-2.578 2.476 0 .735.336 1.391.867 1.844a2.5 2.5 0 0 0-.222 1.031c0 1.832 2.008 3.786 4.488 3.786s4.488-1.954 4.488-3.786c0-.355-.074-.699-.215-1.02a2.43 2.43 0 0 0 .875-1.855m0 0" style="stroke:none;fill-rule:nonzero;fill:url(#b)"/><path d="M6.16 7.375c0-.613-.441-1.113-.984-1.113s-.985.5-.985 1.113c0 .617.442 1.113.985 1.113s.984-.496.984-1.113M11.809 7.375c0-.613-.442-1.113-.985-1.113s-.984.5-.984 1.113c0 .617.441 1.113.984 1.113s.985-.496.985-1.113m0 0" style="stroke:none;fill-rule:nonzero;fill:#404040;fill-opacity:1"/><g clip-path="url(#c)"><g clip-path="url(#d)"><path d="M64 81.313c-9.25 0-17.812-.75-24.969-2.094-1.781-.344-3.343 1.219-2.968 3 2.374 11.656 13.812 21.187 27.906 21.187 15.437 0 25.812-9.875 27.969-21.219a2.53 2.53 0 0 0-2.97-2.968C81.813 80.53 73.219 81.313 64 81.313Zm0 0" style="fill-rule:nonzero;fill:#404040;fill-opacity:1;stroke-width:1;stroke-linecap:butt;stroke-linejoin:miter;stroke:#404040;stroke-opacity:1;stroke-miterlimit:10" transform="scale(.125)"/></g></g><g clip-path="url(#e)"><g clip-path="url(#f)"><path d="M11.875 9.871V8.75h-7.75v1.121A7.34 7.34 0 0 0 8 10.973c1.387 0 2.75-.395 3.875-1.102m0 0" style="stroke:none;fill-rule:nonzero;fill:#fff;fill-opacity:1"/></g></g><g clip-path="url(#g)"><g clip-path="url(#h)"><path d="M8 11.918a2.33 2.33 0 0 0-2.02 1.172c.52.285 1.235.46 2.02.46s1.5-.175 2.02-.46A2.33 2.33 0 0 0 8 11.918m0 0" style="stroke:none;fill-rule:nonzero;fill:#ff4f4f;fill-opacity:1"/></g></g><path d="M7.648 8.766c0-.27-.136-.489-.304-.489s-.305.22-.305.489c0 .27.137.488.305.488s.304-.219.304-.488M8.96 8.766c0-.27-.136-.489-.304-.489s-.304.22-.304.489c0 .27.136.488.304.488s.305-.219.305-.488m0 0" style="stroke:none;fill-rule:nonzero;fill:#404040;fill-opacity:1"/></svg>
